svgs/solid/signal-stream.svg

<svg xmlns="http://www.w3.org/2000/svg" viewBox="0 0 576 512"><!--! Font Awesome Pro 6.0.0-alpha3 by @fontawesome - https://fontawesome.com License - https://fontawesome.com/license (Commercial License) --><path d="M183.7 149.1C173.8 141.2 158.6 142.2 149.8 152.2c-50.33 57.25-50.33 150.4 0 207.7c4.738 5.406 11.39 8.156 18.06 8.156c5.615 0 11.28-1.969 15.84-5.969c9.963-8.75 10.95-23.91 2.19-33.87c-34.97-39.78-34.97-104.5 0-144.3C194.7 173.9 193.7 158.7 183.7 149.1zM512.8 75.96c-11.09-13.78-31.23-15.97-44.98-4.938c-13.8 11.06-16 31.22-4.953 45C495 156.1 512 204.5 512 256c0 51.5-16.98 99.91-49.13 139.1c-11.05 13.78-8.844 33.94 4.953 45C473.7 445.7 480.8 448 487.8 448c9.375 0 18.66-4.094 24.98-11.97C553.6 385.2 576 321.3 576 256C576 190.7 553.6 126.8 512.8 75.96zM64 256c0-51.5 16.98-99.91 49.13-139.1c11.05-13.78 8.844-33.94-4.953-45c-13.75-10.97-33.89-8.812-44.98 4.938C22.44 126.8 0 190.7 0 256c0 65.28 22.44 129.2 63.19 180C69.52 443.9 78.8 448 88.17 448c7.031 0 14.09-2.312 20-7.031c13.8-11.06 16-31.22 4.953-45C80.98 355.9 64 307.5 64 256zM426.2 152.2c-8.727-9.965-23.9-10.93-33.91-2.187c-9.963 8.75-10.95 23.91-2.19 33.87c34.97 39.78 34.97 104.5 0 144.3c-8.758 9.969-7.773 25.12 2.19 33.87c4.566 4 10.21 5.969 15.84 5.969c6.678 0 13.32-2.75 18.06-8.156C476.5 302.6 476.5 209.4 426.2 152.2zM288 200C257.1 200 232 225.1 232 256S257.1 312 288 312S344 286.9 344 256S318.9 200 288 200z"/></svg>

<svg xmlns="http://www.w3.org/2000/svg" viewBox="0 0 576 512"><!-- Font Awesome Pro 6.0.0-alpha2 by @fontawesome - https://fontawesome.com License - https://fontawesome.com/license (Commercial License) --><path d="M183.748 149.969C173.756 141.223 158.586 142.223 149.844 152.156C99.516 209.406 99.516 302.594 149.844 359.844C154.582 365.25 161.229 368 167.906 368C173.521 368 179.182 366.031 183.748 362.031C193.711 353.281 194.697 338.125 185.939 328.156C150.969 288.375 150.969 223.625 185.939 183.844C194.697 173.875 193.711 158.719 183.748 149.969ZM512.812 75.965C501.719 62.184 481.578 59.996 467.828 71.027C454.031 82.09 451.828 102.246 462.875 116.027C495.016 156.09 512 204.496 512 256C512 307.5 495.016 355.906 462.875 395.969C451.828 409.75 454.031 429.906 467.828 440.969C473.734 445.688 480.797 448 487.828 448C497.203 448 506.484 443.906 512.812 436.031C553.562 385.219 576 321.281 576 256C576 190.715 553.562 126.777 512.812 75.965ZM64 256C64 204.496 80.984 156.09 113.125 116.027C124.172 102.246 121.969 82.09 108.172 71.027C94.422 60.059 74.281 62.215 63.187 75.965C22.438 126.777 0 190.715 0 256C0 321.281 22.438 385.219 63.188 436.031C69.516 443.906 78.797 448 88.172 448C95.203 448 102.266 445.688 108.172 440.969C121.969 429.906 124.172 409.75 113.125 395.969C80.984 355.906 64 307.5 64 256ZM426.156 152.156C417.43 142.191 402.26 141.223 392.252 149.969C382.289 158.719 381.303 173.875 390.061 183.844C425.031 223.625 425.031 288.375 390.061 328.156C381.303 338.125 382.289 353.281 392.252 362.031C396.818 366.031 402.463 368 408.094 368C414.771 368 421.418 365.25 426.156 359.844C476.484 302.594 476.484 209.406 426.156 152.156ZM288 200C257.125 200 232 225.125 232 256S257.125 312 288 312S344 286.875 344 256S318.875 200 288 200Z"/></svg>
